X: 29
T:Christchurch Bells
M:4/4
L:1/8
K:C
c3 c c2 c2|c2 c2 c2 e2|d2 c2 B2 A2|G3 G G3 G3|E2 G2 C2 G2|c2 F2 G2 gf| e2 a2 de f2|e3 d c4:|
|:e3 e e2 e2|e2 e2 e2 g2|f2 ef d2 c2|d2 G2 d2 d2| e2 d2 e2 d2|e2 d2 d2 cB|c2 A2 d2 A2|c3 d e4:|
|: gggg g2 gg|g2 gg g2 G2| A3 A B2 c2|B6 AB|c2 B2 c2 B2|c2 d2 B2 AG|A2 F2 G3 G| C6:|

